svgs/sharp-regular/sliders-up.svg

<svg xmlns="http://www.w3.org/2000/svg" viewBox="0 0 512 512"><!--! Font Awesome Pro 6.6.0 by @fontawesome - https://fontawesome.com License - https://fontawesome.com/license (Commercial License) Copyright 2024 Fonticons, Inc. --><path d="M120 0L72 0l0 24 0 56-8 0L16 80l0 48 0 64 0 48 48 0 8 0 0 248 0 24 48 0 0-24 0-248 8 0 48 0 0-48 0-64 0-48-48 0-8 0 0-56 0-24zm8 128l0 64-64 0 0-64 64 0zM288 320l0 64-64 0 0-64 64 0zm-64-48l-48 0 0 48 0 64 0 48 48 0 8 0 0 56 0 24 48 0 0-24 0-56 8 0 48 0 0-48 0-64 0-48 48 0 8 0 0 216 0 24 48 0 0-24 0-216 8 0 48 0 0-48 0-64 0-48-48 0-8 0 0-88 0-24L392 0l0 24 0 88-8 0-48 0 0 48 0 64 0 48-48 0-8 0 0-248 0-24L232 0l0 24 0 248-8 0zM384 160l64 0 0 64-64 0 0-64z"/></svg>

<svg xmlns="http://www.w3.org/2000/svg" viewBox="0 0 512 512"><!--! Font Awesome Pro 6.4.2 by @fontawesome - https://fontawesome.com License - https://fontawesome.com/license (Commercial License) Copyright 2023 Fonticons, Inc. --><path d="M120 0H72V24 80H64 16v48 64 48H64h8V488v24h48V488 240h8 48V192 128 80H128h-8V24 0zm8 128v64H64V128h64zM288 320v64H224V320h64zm-64-48H176v48 64 48h48 8v56 24h48V488 432h8 48V384 320 272h48 8V488v24h48V488 272h8 48V224 160 112H448h-8V24 0H392V24v88h-8H336v48 64 48H288h-8V24 0H232V24 272h-8zM384 160h64v64H384V160z"/></svg>
